X: 1
T: Primrose Polka, The
M: 4/4
L: 1/8
R: barndance
K: Gmaj
|: d2 |
Bc de ed ^cd | b2 g2 b2 g2 | Bc de ed ^cd | A6 G2 |
AG AB cB cd | f2 c2 f2 e2 | dg e2 dB A2 | B6 :|
|: d2 |
B4-BB cd | b6 a2 | gd Bd g2 ag | f2 e2 e4 |
[1 A4-AA Bc | f6 e2 | dg e2 d2 c2 | c2 B2 B2 :|
[2 c'b ab c'4 | ba ga b4 | ag eg ac' ba | g2 b2 g3 d ||
|: ba gf g2 d2 | ba gf g2 d2 | ed ef ga ge |
[1 d6 B2 | cB cd d2 c2 | BA Bc d2 B2 | ^c6 d2 | d2 c2 B2 A2 :|
[2 d6 g2 | ed ea c'2 a2 | d^c dg b2 g2 | d^c df g2 f2 | g6 ||
